X:1
T:Epimel, 85.85 D
T:Epimel, 85.85 D
T:J. Howard Entwisle, 1897
T:Public Domain Courtesy of the Cyber Hymnal™
C:J. Howard Entwisle, 1897
Z:Public Domain
Z:Courtesy of the Cyber Hymnal™
%%score ( 1 2 ) ( 3 4 )
L:1/8
Q:1/4=103
M:4/4
K:Ab
V:1 treble 
V:2 treble 
V:3 bass 
V:4 bass 
V:1
 [Ec]3 [Ee] [Ed][Ec] [DB]>[Ec] | [CA]4 [CE]4 | [DF]3 [DA] [CE]2 [EA]2 | [GB]6 z2 | %4
 [Ac]3 [Ae] [Ed][Ec][DB][CA] | [DA]4 [DF]4 | [CE]3 [CA] [DB]2 [Ec]2 | [CA]6 z2 | %8
 [Ec]2 [Ec]>[Ed] [Ae]3 [Ac] | [EA]2 [Ac]2 [Ac] [GB]3 | [Bd]3 [Bd] ([Bd][Ac]) [GB]2 | [Ac]6 z2 | %12
 [Ee]3 [Ed] [Ec][DB] [CA]>E | [EG]4 [DF]3 z | [CE]3 [CA] [DB]2 [Ec]2 | [CA]8 |] %16
V:2
 x8 | x8 | x8 | x8 | x8 | x8 | x8 | x8 | x8 | x8 | x8 | x8 | x15/2 E/ | x8 | x8 | x8 |] %16
V:3
 A,3 [A,C] [A,B,]A, [E,G,]>[E,G,] | [A,,A,]4 [A,,A,]4 | [D,A,]3 [F,A,] A,2 [A,C]2 | [E,E]6 z2 | %4
 [A,E]3 [A,C] [A,B,]A,[A,,E,][A,,E,] | [D,F,]4 [D,A,]4 | [E,A,]3 [E,A,] [E,G,]2 [E,G,]2 | %7
 [A,,A,]6 z2 | A,2 A,>[A,B,] [A,C]3 [A,E] | [CE]2 [A,E]2 [E,E] [E,E]3 | %10
 [E,E]3 [E,E] [E,E]2 [E,E]2 | [A,E]6 z2 | [A,C]3 [A,B,] [A,,A,][A,,E,] [A,,E,]>[C,A,] | %13
 [D,A,]4 [D,A,]3 z | [E,A,]3 [E,A,] [E,G,]2 [E,G,]2 | [A,,A,]8 |] %16
V:4
 A,3 A, x4 | x8 | x4 A,2 x2 | x8 | x5 A, x2 | x8 | x8 | x8 | A,2 A,3/2 x9/2 | x8 | x8 | x8 | x8 | %13
 x8 | x8 | x8 |] %16

